vendor/shopware/storefront/Resources/app/storefront/dist/assets/icon/default/eye-crossed.svg

<svg xmlns="http://www.w3.org/2000/svg" width="24" height="24" viewBox="0 0 24 24">
  <path fill="#758CA3" fill-rule="evenodd" d="M2.98773762,16.1010877 C2.1025265,15.2691078 1.24419031,14.3052678 0.411938248,13.2100652 C-0.13154382,12.4948695 -0.131542993,11.5050717 0.411944042,10.789872 C3.82707882,6.29579677 7.70177582,4 12.0010748,4 C12.6969363,4 13.3836028,4.06047776 14.0603833,4.18148135 C14.6040468,4.27868455 14.9659744,4.79820965 14.8687712,5.34187313 C14.771568,5.88553661 14.2520429,6.24746418 13.7083794,6.15026098 C13.1481897,6.05010302 12.5793184,6 12.0010748,6 C8.38926997,6 5.06869021,7.96747675 2.00433407,11.9999926 C2.77113603,13.0090662 3.55545505,13.8898495 4.35650126,14.6428394 C4.36524863,14.6509889 4.37388551,14.6593243 4.38240687,14.6678457 C4.77293116,15.05837 4.77293116,15.6915349 4.38240687,16.0820592 C3.9983319,16.4661342 3.37956426,16.472477 2.98773762,16.1010877 Z M20.2928932,2.29289322 C20.6834175,1.90236893 21.3165825,1.90236893 21.7071068,2.29289322 C22.0976311,2.68341751 22.0976311,3.31658249 21.7071068,3.70710678 L3.70710678,21.7071068 C3.31658249,22.0976311 2.68341751,22.0976311 2.29289322,21.7071068 C1.90236893,21.3165825 1.90236893,20.6834175 2.29289322,20.2928932 L20.2928932,2.29289322 Z M19.6410909,9.3528782 C19.2385461,8.97475635 19.2187474,8.34190099 19.5968693,7.9393562 C19.9749911,7.5368114 20.6078465,7.5170127 21.0103913,7.89513455 C21.8970241,8.72797419 22.7566994,9.69307424 23.5902113,10.7899348 C24.1336933,11.5051305 24.1336925,12.4949283 23.5902055,13.210128 C20.1750707,17.7042032 16.3003737,20 12.0010748,20 C11.3045287,20 10.6171963,19.9394032 9.93977021,19.8181616 C9.39612378,19.7208631 9.03428733,19.2012745 9.13158587,18.6576281 C9.22888441,18.1139816 9.74847297,17.7521452 10.2921194,17.8494437 C10.8528426,17.9497986 11.4222635,18 12.0010748,18 C15.6128796,18 18.9334593,16.0325233 21.9978155,12.0000074 C21.2295592,10.9890201 20.4437196,10.1068103 19.6410909,9.3528782 Z"/>
</svg>

<svg xmlns="http://www.w3.org/2000/svg" width="24" height="24" viewBox="0 0 24 24"><path fill="#758CA3" fill-rule="evenodd" d="M2.9877 16.101c-.8852-.8319-1.7435-1.7957-2.5758-2.891a2 2 0 0 1 0-2.4201C3.8271 6.2958 7.7018 4 12.0011 4c.6958 0 1.3825.0605 2.0593.1815.5436.0972.9056.6167.8084 1.1604-.0972.5436-.6168.9056-1.1604.8084A9.6795 9.6795 0 0 0 12.001 6c-3.6118 0-6.9324 1.9675-9.9968 6 .7668 1.009 1.5512 1.8898 2.3522 2.6428a1.018 1.018 0 0 1 .026.025c.3904.3906.3904 1.0237 0 1.4143-.3842.384-1.003.3904-1.3948.019zM20.293 2.293c.3905-.3905 1.0237-.3905 1.4142 0 .3905.3905.3905 1.0237 0 1.4142l-18 18c-.3905.3905-1.0237.3905-1.4142 0-.3905-.3905-.3905-1.0237 0-1.4142l18-18zm-.6518 7.06c-.4026-.3781-.4224-1.011-.0442-1.4135.378-.4026 1.011-.4224 1.4135-.0443.8866.8329 1.7463 1.798 2.5798 2.8948a2 2 0 0 1 0 2.4202C20.1751 17.7042 16.3004 20 12.0011 20c-.6966 0-1.3839-.0606-2.0613-.1818-.5437-.0973-.9055-.617-.8082-1.1606.0973-.5436.6169-.9055 1.1605-.8082a9.6793 9.6793 0 0 0 1.709.1506c3.6118 0 6.9324-1.9675 9.9967-6-.7682-1.011-1.554-1.8932-2.3567-2.6471z"/></svg>
